X:1
T:The Dreadnaught
M:3/4
L:1/4
K:F
 A| A B A| G F E| F E D| ^C2 E| D E D| F E D| C D E| F z F/2F/2| F E D|\
 C D C| C D C| c2 d/2d/2| d A/2 A3/2| B A G| A G F| G2 F/2E/2| D3|\
 A3| G F E| D3|
